X: 1
T: McMullin's
M: 4/4
L: 1/8
R: reel
K: E Dorian
|: zF | 
GEBE GEEG | FDAD FDDF | GEBE GEEG | FEDF E3F |
GEBE GEEG | FDAD FDDF | EGFA GBAc | Be^df e2 :|
|: ef | 
(3gfe fd edBA | BGAF GEEf | (3gfe fd edBA | Be^df e2 ef |
(3gfe fd edBA | BGAF GE E2 | EGFA GBAc | Be^df e2 :|
